X:47
T:Chertsey
T:LM
S:John Moore's Book 3
Z:Transcribed by Edmund Spriggs 05/2021
%%VWML: Moore1-4495-p39-0
F:https://www.vwml.org/record/Moore3/4495/p39
N:Tune continues on jpeg page 40.
N:Fermatas are not used consistently in all four parts.
N:Note values are shown as they appear in the manuscript, even when
N:this means that the parts are not in time with each other.
M:C
L:1/8
V:1 clef=treble
V:2 clef=treble
V:3 clef=treble
V:4 clef=bass
K:G
[V:1]d2d d (d>cB) e|d2c2B2A2|"Pia"d3 d d3 d|d2d2!fermata!d2d|
[V:2]g2f gg3 g|g2f2e2d2|(f/e/f/a/)g g (gd) (gb)|(ba) (ag) !fermata!g2f2 f|
[V:3]"Air"B2A G A d2c|B2A2G2A2|(B/A/B/c/B) B B2(Bd)|(dc) (cB) (B2!fermata!A) A|
[V:4]G,,2 A,, B,, C,2B,, C,|D,2D,2E,2"Pia"F,2|G,3G,G,2G,2|F,2G,2D,3D,|
[V:1]d2e2(fed) d|d2^c2!fermata!d2|]
[V:2]g2g2(fga) b|a2g2f2|]
[V:3]d2^c2(dcd) g|f2e2!fermata!d2|]
[V:4]G,F,E,2(D,E,F,) G,|A,2A,,2!fermata!D,2|]
[V:1]d|d3dd3d|(e>dc)B B2!fermata!A A|(Bd) (dc)B2d2|d2d2d3B|
[V:2]b|(ba) (ag) (g2f) g|e3e!fermata!d3d|d2d2d3g|(gf) (ga)g3g|
[V:3]d|(dc) (cB) (BA2) B|(c>BA) G(G2F) D|"|"G2"|"G2G3B|(BA) (Bc)B3d|
[V:4]D,|D,2D,2D,3G,|C,3^C, (D,3F,)|(G,A,,) (B,,D,)G,2G,2|"|"G,2"|"G,2G,3G,|
[V:1]c3c B>(cd/e/) (d/A)|B2A2B4|]
[V:2]g3gg3g/e/|d2d2d4|]
[V:3]e3e d>(ed/c/) (B/A/)|G2F2G4|]
[V:4]C,>B,,C,/D,/ E,/F,/G,2B,,C,|D,2D,2G,,4|]

